src/assets/svgs/brazil.svg

<svg xmlns="http://www.w3.org/2000/svg" viewBox="0 0 512 512"><g transform="matrix(1.25 0 0 -1.25 0 45)"><path d="M409.6-271.2c0-25.134-20.378-45.51-45.51-45.51H45.51C20.378-316.71 0-296.334 0-271.2v204.8c0 25.134 20.378 45.51 45.51 45.51H364.09c25.134 0 45.51-20.378 45.51-45.51v-204.8z" fill="#009b3a"/><path d="M372.36-168.8L204.79-295.366 37.217-168.8 204.79-42.222 372.36-168.8z" fill="#fedf01"/><path d="M278.005-167.9c0 40.585-32.905 73.478-73.478 73.478-40.585 0-73.478-32.893-73.478-73.478 0-40.573 32.893-73.478 73.478-73.478 40.573.001 73.478 32.905 73.478 73.478" fill="#002776"/><path d="M139.685-133.415c-3.777-7.066-6.35-14.825-7.646-23.017 45.443 3.3 107.145-21.527 133.62-52.292 4.574 6.872 7.964 14.575 10.035 22.8-32.666 31.96-90.067 52.7-136 52.508" fill="#cbe9d4"/><path d="M147.9-182.83h-11.378v11.378H147.9v-11.378zm11.38-22.754H147.9v11.378h11.378v-11.378z" fill="#88c9f9"/><path d="M182.044-182.83h-11.378v11.378h11.378v-11.378zm22.756-11.377h-11.378v11.378H204.8v-11.378zm45.5-22.755h-11.378v11.378H250.3v-11.378zm-34.132-11.378H204.8v11.378h11.378v-11.378zm34.132 68.267h-11.378v11.378H250.3v-11.378z" fill="#55acee"/><path d="M227.556-205.584h-11.378v11.378h11.378v-11.378z" fill="#3b88c3"/></g></svg>

<?xml version="1.0" encoding="iso-8859-1"?>
<!-- Generator: Adobe Illustrator 19.0.0, SVG Export Plug-In . SVG Version: 6.00 Build 0)  -->
<svg version="1.1" id="Capa_1" xmlns="http://www.w3.org/2000/svg" xmlns:xlink="http://www.w3.org/1999/xlink" x="0px" y="0px"
	 viewBox="0 0 512 512" style="enable-background:new 0 0 512 512;" xml:space="preserve">
<g transform="matrix(1.25 0 0 -1.25 0 45)">
	<g>
		<g>
			<path style="fill:#009B3A;" d="M409.6-271.2c0-25.134-20.378-45.511-45.511-45.511H45.511C20.378-316.711,0-296.334,0-271.2
				v204.8c0,25.134,20.378,45.511,45.511,45.511h318.578c25.134,0,45.511-20.378,45.511-45.511V-271.2z"/>
			<path style="fill:#FEDF01;" d="M372.361-168.8L204.789-295.366L37.217-168.8L204.789-42.222L372.361-168.8z"/>
			<path style="fill:#002776;" d="M278.005-167.89c0,40.585-32.905,73.478-73.478,73.478c-40.585,0-73.478-32.893-73.478-73.478
				c0-40.573,32.893-73.478,73.478-73.478C245.1-241.367,278.005-208.463,278.005-167.89"/>
			<path style="fill:#CBE9D4;" d="M139.685-133.415c-3.777-7.066-6.349-14.825-7.646-23.017
				c45.443,3.3,107.145-21.527,133.621-52.292c4.574,6.872,7.964,14.575,10.035,22.801
				C243.029-153.963,185.628-133.233,139.685-133.415"/>
			<g>
				<path style="fill:#88C9F9;" d="M147.911-182.829h-11.378v11.378h11.378V-182.829z"/>
				<path style="fill:#88C9F9;" d="M159.289-205.584h-11.378v11.378h11.378V-205.584z"/>
			</g>
			<g>
				<path style="fill:#55ACEE;" d="M182.044-182.829h-11.378v11.378h11.378V-182.829z"/>
				<path style="fill:#55ACEE;" d="M204.8-194.207h-11.378v11.378H204.8V-194.207z"/>
				<path style="fill:#55ACEE;" d="M250.311-216.962h-11.378v11.378h11.378V-216.962z"/>
				<path style="fill:#55ACEE;" d="M216.178-228.34H204.8v11.378h11.378V-228.34z"/>
				<path style="fill:#55ACEE;" d="M250.311-160.073h-11.378v11.378h11.378V-160.073z"/>
			</g>
			<path style="fill:#3B88C3;" d="M227.556-205.584h-11.378v11.378h11.378V-205.584z"/>
		</g>
	</g>
</g>
<g>
</g>
<g>
</g>
<g>
</g>
<g>
</g>
<g>
</g>
<g>
</g>
<g>
</g>
<g>
</g>
<g>
</g>
<g>
</g>
<g>
</g>
<g>
</g>
<g>
</g>
<g>
</g>
<g>
</g>
</svg>
